X: 29640
T: Northern Flicker, The
R: reel
M: 4/4
K: Edorian
B/c/d|:eged B2eg|edBG ADFA|~B2GB AGEC|DEGB A2B/c/d|
eged B2eg|edBG ADFA|~B2GB AGED|1 EGFD E2B/c/d:|2 EGFD E2ef||
|:dGBG edcB|c~A3 agec|dGBG edcB|cAED CEAc|
dGBG edcB|c~A3 aged|bd'ad' bged|1 eBgf ~e2ce:|2 eBgf e2B/c/d||

